Origami/48x48/apps/realtimesync.svg

<svg width="48" height="48" version="1" xmlns="http://www.w3.org/2000/svg">
 <path d="m24.054836 7.0011039c-1.731434-0.0158039-3.387171 0.2404219-4.933191 0.6621094-6.191824 1.6603399-10.684201 6.6301927-12.302645 12.585938-3.3307996 0.842837-5.0074749 4.822827-2.8589414 7.695312l4.5065996 6.019532 0.00195 2e-3c0.6885923 0.916778 1.7010205 1.465314 2.7982795 1.746094 0.198386 1.149827 0.567632 2.288104 1.360003 3.185546 0.207516 0.235605 0.436871 0.451815 0.684893 0.644532 4.470943 3.466136 10.222234 4.183936 15.32009 2.787109 6.302132-1.593311 10.888006-6.607959 12.533552-12.636719 3.34311-0.834782 5.029866-4.83211 2.868726-7.708984l-4.5066-5.994141c-0.611519-0.812796-1.456118-1.419173-2.422566-1.740234-0.0026-6.77e-4 -0.0052-0.0013-0.0078-2e-3 -0.07241-0.02338-0.147252-0.03845-0.22308-0.04492-0.05916-0.01638-0.120337-0.02291-0.180029-0.03711-0.202492-1.076041-0.552217-2.143329-1.297384-3-0.212556-0.245034-0.448527-0.468518-0.704482-0.66797-3.170928-2.4628513-6.984652-3.4840401-10.631505-3.4960941z" style="opacity:.2"/>
 <path d="m24.054836 6.0008977c-1.731434-0.0158039-3.387171 0.2404219-4.933191 0.6621094-6.191824 1.6603399-10.684201 6.6301929-12.302645 12.585938-3.3307996 0.842837-5.0074749 4.822827-2.8589414 7.695312l4.5065996 6.019532 0.00195 2e-3c0.6885923 0.916778 1.7010205 1.465314 2.7982795 1.746094 0.198386 1.149827 0.567632 2.288104 1.360003 3.185546 0.207516 0.235605 0.436871 0.451815 0.684893 0.644532 4.470943 3.466136 10.222234 4.183936 15.32009 2.787109 6.302132-1.593311 10.888006-6.607959 12.533552-12.636719 3.34311-0.834782 5.029866-4.83211 2.868726-7.708984l-4.5066-5.994141c-0.611519-0.812796-1.456118-1.419173-2.422566-1.740234-0.0026-6.77e-4 -0.0052-0.0013-0.0078-2e-3 -0.07241-0.02338-0.147252-0.03845-0.22308-0.04492-0.05916-0.01638-0.120337-0.02291-0.180029-0.03711-0.202492-1.076041-0.552217-2.143329-1.297384-3-0.212556-0.2450339-0.448527-0.4685187-0.704482-0.6679705-3.170928-2.462851-6.984652-3.4840398-10.631505-3.4960938z" style="fill:#d54747"/>
 <path d="m24.026 12c2.735 6e-3 5.4086 0.75849 7.5749 2.4457 1.5229 1.7544-1.3789 3.6333-2.6858 1.9226-3.9343-2.3806-9.3832-1.4425-12.3433 2.1166-1.5749 1.7662-2.4622 4.1231-2.4518 6.4891h2.88l-4.5 6.026-4.5-6.026h3c-0.083-5.649 3.98-11.023 9.435-12.486 1.17-0.321 2.376-0.501 3.591-0.488zm11.4743 7.0001 4.4997 5.9999h-3c0.0737 5.7169-4.093 11.151-9.6433 12.537-3.7452 1.0459-7.88015 0.48285-10.95805-1.90995-1.5705-1.7837 1.3716-3.6445 2.6907-1.9181 3.8119 2.3127 9.04995 1.37905 12.05905-1.92415 1.742-1.795 2.744-4.283 2.731-6.785h-2.8794l4.4997-5.9999z" style="opacity:.2"/>
 <path d="m24.026 11c2.735 6e-3 5.4086 0.75849 7.5749 2.4457 1.5229 1.7544-1.3789 3.6333-2.6858 1.9226-3.9343-2.3806-9.3832-1.4425-12.3433 2.1166-1.5749 1.7662-2.4622 4.1231-2.4518 6.4891h2.88l-4.5 6.026-4.5-6.026h3c-0.083-5.649 3.98-11.023 9.435-12.486 1.17-0.321 2.376-0.501 3.591-0.488zm11.4743 7.0001 4.4997 5.9999h-3c0.0737 5.7169-4.093 11.151-9.6433 12.537-3.7452 1.0459-7.88015 0.48285-10.95805-1.90995-1.5705-1.7837 1.3716-3.6445 2.6907-1.9181 3.8119 2.3127 9.04995 1.37905 12.05905-1.92415 1.742-1.795 2.744-4.283 2.731-6.785h-2.8794l4.4997-5.9999z" style="fill:#ffffff"/>
 <path d="m24.054688 6c-1.731435-0.0158039-3.387574 0.2404219-4.933594 0.6621094-6.191824 1.6603399-10.684291 6.6301926-12.302735 12.585938-2.4939889 0.631087-4.0593029 3.021782-3.7871094 5.388672 0.1972663-2.007081 1.6458954-3.844899 3.7871094-4.386719 1.6184434-5.955745 6.1109106-10.925598 12.302735-12.585938 1.54602-0.4216875 3.202159-0.6779133 4.933594-0.6621094h0.005859c3.646853 0.012054 7.459931 1.0332425 10.630859 3.4960939 0.255955 0.199452 0.492522 0.422935 0.705078 0.667969 0.745167 0.856671 1.094383 1.923959 1.296875 3 0.059692 0.0142 0.122481 0.020729 0.181641 0.037109 0.075828 0.00647 0.150246 0.021542 0.222656 0.044922 0.0026 7e-4 0.005213 0.001276 0.007813 0.001953 0.966448 0.321061 1.810356 0.927438 2.421875 1.740234l4.505859 5.994141c0.546511 0.727506 0.845732 1.526578 0.935547 2.328125 0.113569-1.122289-0.160577-2.298451-0.935547-3.330078l-4.505859-5.994141c-0.611519-0.812796-1.455427-1.419173-2.421875-1.740234-0.0026-6.77e-4 -0.005213-0.001253-0.007813-0.001953-0.07241-0.02338-0.146828-0.038452-0.222656-0.044922-0.05916-0.01638-0.121949-0.022909-0.181641-0.03711-0.202492-1.076041-0.551708-2.143329-1.296875-3-0.212556-0.2450334-0.449123-0.4685164-0.705078-0.6679682-3.170928-2.462851-6.984006-3.4840398-10.630859-3.4960938h-0.005859z" style="fill:#ffffff;opacity:.2"/>
</svg>

<svg xmlns="http://www.w3.org/2000/svg" width="48" height="48" version="1">
 <path style="opacity:0.2" d="M 24.054836,7.0011039 C 22.323402,6.9853 20.667665,7.2415258 19.121645,7.6632133 12.929821,9.3235532 8.4374437,14.293406 6.8190003,20.249151 3.4882007,21.091988 1.8115254,25.071978 3.9600589,27.944463 l 4.5065996,6.019532 0.00195,0.002 c 0.6885923,0.916778 1.7010205,1.465314 2.7982795,1.746094 0.198386,1.149827 0.567632,2.288104 1.360003,3.185546 0.207516,0.235605 0.436871,0.451815 0.684893,0.644532 4.470943,3.466136 10.222234,4.183936 15.32009,2.787109 6.302132,-1.593311 10.888006,-6.607959 12.533552,-12.636719 3.34311,-0.834782 5.029866,-4.83211 2.868726,-7.708984 l -4.5066,-5.994141 c -0.611519,-0.812796 -1.456118,-1.419173 -2.422566,-1.740234 -0.0026,-6.77e-4 -0.0052,-0.0013 -0.0078,-0.002 -0.07241,-0.02338 -0.147252,-0.03845 -0.22308,-0.04492 -0.05916,-0.01638 -0.120337,-0.02291 -0.180029,-0.03711 -0.202492,-1.076041 -0.552217,-2.143329 -1.297384,-3 C 35.184137,10.920134 34.948166,10.69665 34.692211,10.497198 31.521283,8.0343467 27.707559,7.0131579 24.060706,7.0011039 Z"/>
 <path style="fill:#d54747" d="M 24.054836,6.0008977 C 22.323402,5.9850938 20.667665,6.2413196 19.121645,6.6630071 12.929821,8.323347 8.4374437,13.2932 6.8190003,19.248945 3.4882007,20.091782 1.8115254,24.071772 3.9600589,26.944257 l 4.5065996,6.019532 0.00195,0.002 c 0.6885923,0.916778 1.7010205,1.465314 2.7982795,1.746094 0.198386,1.149827 0.567632,2.288104 1.360003,3.185546 0.207516,0.235605 0.436871,0.451815 0.684893,0.644532 4.470943,3.466136 10.222234,4.183936 15.32009,2.787109 6.302132,-1.593311 10.888006,-6.607959 12.533552,-12.636719 3.34311,-0.834782 5.029866,-4.83211 2.868726,-7.708984 l -4.5066,-5.994141 c -0.611519,-0.812796 -1.456118,-1.419173 -2.422566,-1.740234 -0.0026,-6.77e-4 -0.0052,-0.0013 -0.0078,-0.002 -0.07241,-0.02338 -0.147252,-0.03845 -0.22308,-0.04492 -0.05916,-0.01638 -0.120337,-0.02291 -0.180029,-0.03711 -0.202492,-1.076041 -0.552217,-2.143329 -1.297384,-3 C 35.184137,9.9199281 34.948166,9.6964433 34.692211,9.4969915 31.521283,7.0341405 27.707559,6.0129517 24.060706,6.0008977 Z"/>
 <path style="opacity:0.2" d="m 24.026,12 c 2.735,0.006 5.4086,0.75849 7.5749,2.4457 1.5229,1.7544 -1.3789,3.6333 -2.6858,1.9226 -3.9343,-2.3806 -9.3832,-1.4425 -12.3433,2.1166 -1.5749,1.7662 -2.4622,4.1231 -2.4518,6.4891 H 17 L 12.5,31 8,24.974 h 3 C 10.917,19.325 14.98,13.951 20.435,12.488 21.605,12.167 22.811,11.987 24.026,12 Z M 35.5003,19.0001 40,25 h -3 c 0.0737,5.7169 -4.093,11.151 -9.6433,12.537 -3.7452,1.0459 -7.88015,0.48285 -10.95805,-1.90995 -1.5705,-1.7837 1.3716,-3.6445 2.6907,-1.9181 3.8119,2.3127 9.04995,1.37905 12.05905,-1.92415 1.742,-1.795 2.744,-4.283 2.731,-6.785 H 31 l 4.4997,-5.9999 z"/>
 <path style="fill:#ffffff" d="m 24.026,11 c 2.735,0.006 5.4086,0.75849 7.5749,2.4457 1.5229,1.7544 -1.3789,3.6333 -2.6858,1.9226 -3.9343,-2.3806 -9.3832,-1.4425 -12.3433,2.1166 -1.5749,1.7662 -2.4622,4.1231 -2.4518,6.4891 H 17 L 12.5,30 8,23.974 h 3 C 10.917,18.325 14.98,12.951 20.435,11.488 21.605,11.167 22.811,10.987 24.026,11 Z M 35.5003,18.0001 40,24 h -3 c 0.0737,5.7169 -4.093,11.151 -9.6433,12.537 -3.7452,1.0459 -7.88015,0.48285 -10.95805,-1.90995 -1.5705,-1.7837 1.3716,-3.6445 2.6907,-1.9181 3.8119,2.3127 9.04995,1.37905 12.05905,-1.92415 1.742,-1.795 2.744,-4.283 2.731,-6.785 H 31 l 4.4997,-5.9999 z"/>
 <path style="fill:#ffffff;opacity:0.2" d="M 24.054688 6 C 22.323253 5.9841961 20.667114 6.2404219 19.121094 6.6621094 C 12.92927 8.3224493 8.4368028 13.292302 6.8183594 19.248047 C 4.3243705 19.879134 2.7590565 22.269829 3.03125 24.636719 C 3.2285163 22.629638 4.6771454 20.79182 6.8183594 20.25 C 8.4368028 14.294255 12.92927 9.3244024 19.121094 7.6640625 C 20.667114 7.242375 22.323253 6.9861492 24.054688 7.0019531 L 24.060547 7.0019531 C 27.7074 7.0140071 31.520478 8.0351956 34.691406 10.498047 C 34.947361 10.697499 35.183928 10.920982 35.396484 11.166016 C 36.141651 12.022687 36.490867 13.089975 36.693359 14.166016 C 36.753051 14.180216 36.81584 14.186745 36.875 14.203125 C 36.950828 14.209595 37.025246 14.224667 37.097656 14.248047 C 37.100256 14.248747 37.102869 14.249323 37.105469 14.25 C 38.071917 14.571061 38.915825 15.177438 39.527344 15.990234 L 44.033203 21.984375 C 44.579714 22.711881 44.878935 23.510953 44.96875 24.3125 C 45.082319 23.190211 44.808173 22.014049 44.033203 20.982422 L 39.527344 14.988281 C 38.915825 14.175485 38.071917 13.569108 37.105469 13.248047 C 37.102869 13.24737 37.100256 13.246794 37.097656 13.246094 C 37.025246 13.222714 36.950828 13.207642 36.875 13.201172 C 36.81584 13.184792 36.753051 13.178263 36.693359 13.164062 C 36.490867 12.088021 36.141651 11.020733 35.396484 10.164062 C 35.183928 9.9190286 34.947361 9.6955456 34.691406 9.4960938 C 31.520478 7.0332428 27.7074 6.012054 24.060547 6 L 24.054688 6 z"/>
</svg>
